build/system/SwitchPinnedAreasOutline.svg

<svg xmlns="http://www.w3.org/2000/svg" fill="none" viewBox="0 0 24 24" focusable="false"><path d="M0 0H24V24H0z"/><path fill="#74767B" fill-rule="evenodd" d="M7 4C5.34315 4 4 5.34315 4 7L4 17C4 18.6569 5.34315 20 7 20L17 20C18.6569 20 20 18.6569 20 17L20 7C20 5.34315 18.6569 4 17 4L7 4ZM17 5.3L7 5.3C6.06112 5.3 5.3 6.06112 5.3 7L5.3 17C5.3 17.9389 6.06112 18.7 7 18.7L17 18.7C17.9389 18.7 18.7 17.9389 18.7 17L18.7 7C18.7 6.06112 17.9389 5.3 17 5.3ZM17.65 7C17.65 6.64102 17.359 6.35 17 6.35C16.641 6.35 16.35 6.64102 16.35 7L16.35 15C16.35 15.359 16.641 15.65 17 15.65C17.359 15.65 17.65 15.359 17.65 15L17.65 7ZM13.1357 11.2567L14.9328 9.45962C15.1866 9.20578 15.1866 8.79422 14.9328 8.54038L13.1357 6.74332C12.8819 6.48948 12.4703 6.48948 12.2165 6.74332C11.9626 6.99716 11.9626 7.40872 12.2165 7.66256L12.9039 8.35L12 8.35C9.98416 8.35 8.35 9.98416 8.35 12L8.35 12.8253L7.66256 12.1379C7.40872 11.884 6.99716 11.884 6.74332 12.1379C6.48948 12.3917 6.48948 12.8033 6.74332 13.0571L8.54038 14.8542C8.79422 15.108 9.20578 15.108 9.45962 14.8542L11.2567 13.0571C11.5105 12.8033 11.5105 12.3917 11.2567 12.1379C11.0028 11.884 10.5913 11.884 10.3374 12.1379L9.65 12.8253L9.65 12C9.65 10.7021 10.7021 9.65 12 9.65L12.9039 9.65L12.2165 10.3374C11.9626 10.5913 11.9626 11.0028 12.2165 11.2567C12.4703 11.5105 12.8819 11.5105 13.1357 11.2567ZM7 16.35C6.64102 16.35 6.35 16.641 6.35 17C6.35 17.359 6.64102 17.65 7 17.65L15 17.65C15.359 17.65 15.65 17.359 15.65 17C15.65 16.641 15.359 16.35 15 16.35L7 16.35Z"/></svg>

<svg xmlns="http://www.w3.org/2000/svg" fill="none" viewBox="0 0 24 24" focusable="false"><path fill="#74767B" fill-rule="evenodd" d="M7 4C5.34 4 4 5.34 4 7v10c0 1.65 1.34 3 3 3h10c1.65 0 3-1.35 3-3V7c0-1.66-1.35-3-3-3zm10 1.29H7c-.94 0-1.71.77-1.71 1.71v10c0 .93.77 1.7 1.71 1.7h10c.93 0 1.7-.77 1.7-1.7V7c0-.94-.77-1.71-1.7-1.71M17.64 7c0-.36-.29-.66-.64-.66-.36 0-.65.3-.65.66v8c0 .35.29.65.65.65.35 0 .64-.3.64-.65zm-2.71 2.45-1.8 1.8a.64.64 0 0 1-.92 0 .66.66 0 0 1 0-.92l.69-.68H12c-1.3 0-2.36 1.05-2.36 2.35v.82l.69-.69c.26-.25.67-.25.92 0 .26.26.26.67 0 .92l-1.8 1.8c-.25.25-.66.25-.91 0l-1.8-1.8a.64.64 0 0 1 0-.92c.25-.25.66-.25.92 0l.69.69V12c0-2.02 1.63-3.66 3.65-3.66h.9l-.69-.68a.66.66 0 0 1 0-.92.64.64 0 0 1 .92 0l1.8 1.8c.25.25.25.66 0 .91M7 16.35c-.36 0-.65.29-.65.65 0 .35.29.65.65.65h8c.35 0 .64-.3.64-.65 0-.36-.29-.65-.64-.65z"/></svg>
